dist/svg/comment.svg

<!-- Generated by Trend Micro Style Portal -->
<svg version="1.1" xmlns="http://www.w3.org/2000/svg" width="16" height="16" viewBox="0 0 16 16">
  <title>comment</title>
  <path fill="rgb(34,34,34)" d="M8 1c-4.42 0-8 2.69-8 6 0.055 1.63 0.845 3.065 2.048 3.991l0.012 0.009-1.060 3s3.070-1.78 3-1.82v0c1.169 0.518 2.532 0.82 3.966 0.82 0.012 0 0.024-0 0.036-0h-0.002c4.42 0 8-2.69 8-6s-3.58-6-8-6zM4 8c-0.552 0-1-0.448-1-1s0.448-1 1-1c0.552 0 1 0.448 1 1v0c0 0.552-0.448 1-1 1v0zM8 8c-0.552 0-1-0.448-1-1s0.448-1 1-1c0.552 0 1 0.448 1 1v0c0 0.552-0.448 1-1 1v0zM12 8c-0.552 0-1-0.448-1-1s0.448-1 1-1c0.552 0 1 0.448 1 1v0c0 0.552-0.448 1-1 1v0z"></path>
</svg>

<svg width="16" height="16" viewBox="0 0 16 16" fill="rgb(34, 34, 34)" xmlns="http://www.w3.org/2000/svg"><title>comment</title><path d="M8 1C3.58 1 0 3.69 0 7C0.055 8.63 0.845 10.065 2.048 10.991L2.06 11L1 14C1 14 4.07 12.22 4 12.18C5.169 12.698 6.532 13 7.966 13C7.978 13 7.99 13 8.002 13H8C12.42 13 16 10.31 16 7C16 3.69 12.42 1 8 1ZM4 8C3.448 8 3 7.552 3 7C3 6.448 3.448 6 4 6C4.552 6 5 6.448 5 7C5 7.552 4.552 8 4 8ZM8 8C7.448 8 7 7.552 7 7C7 6.448 7.448 6 8 6C8.552 6 9 6.448 9 7C9 7.552 8.552 8 8 8ZM12 8C11.448 8 11 7.552 11 7C11 6.448 11.448 6 12 6C12.552 6 13 6.448 13 7C13 7.552 12.552 8 12 8Z" fill="rgb(34, 34, 34)" fill-opacity="1.00"/></svg>
